X:4
T:Butterfly
Z: id:dc-slipjig-3
M:9/8
L:1/8
K:E Minor
B2E G2E F3|B2E G2E FGA|B2E G2E F3|B2d d2B AFA:|!
B2c e2f g3|B2c g2e dBA|B2c e2f g2a|b2a g2e dBA:|!
B3 B2A G2A|B3 BAB dBA|B3 B2A G2A|B2d g2e dBA:|!

